X: 10553
T: MY ONLY JOE AND DEARIE O
O: Supposed Irish air.
Q: "Slow."
%R: air, march
B: W. Hamilton "Universal Tune-Book" Vol. 1 Glasgow 1844 p.55 #3
S: http://imslp.org/wiki/Hamilton's_Universal_Tune-Book_(Various)
Z: 2016 John Chambers <jc:trillian.mit.edu>
M: C
L: 1/8
K: D
% - - - - - - - - - - - - - - - - - - - - - - - - -
A2 |\
d3e (fe)(d^c) | d2A2 A3F |\
G3B (AG)(FE) | F2D2 D2A2 |\
d3e (fe)(d^c) | d2A2 A3F |\
G2(AB) (AG)FE | F2D2 D2 :|\
A2 |\
d3e f2d2 | e3^c A2A2 |\
d3e f2(ed) | e2=c2 c2(df) |
f3d (fe)(d^c) | d3e Hf2F2 |\
G3B (AG)(FE) | F2D2 D2A2 |\
d3e f2d2 | e3^c A2A2 |\
d3e {g}f2(ed) | e2=c2 Hc2 f>g |\
a2f2 (ag)(fe) | (de)(fg) Ha2 F2 |\
G2(AB) (AG)(FE) | F2D2 D2 |]
% - - - - - - - - - - - - - - - - - - - - - - - - -

%%sep 1 1 500
%%sep 1 1 500

